Images/skills-img-4.svg

<svg width="97" height="100" viewBox="0 0 97 100" fill="none" xmlns="http://www.w3.org/2000/svg">
<g clip-path="url(#clip0_1_759)">
<path d="M96.242 83.3333C96.242 92.5 89.0238 100 80.2016 100H16.0403C7.21815 100 0 92.5 0 83.3333V16.6667C0 7.5 7.21815 0 16.0403 0H80.2016C89.0238 0 96.242 7.5 96.242 16.6667V83.3333Z" fill="#563D7C"/>
<path d="M26.1518 21.7323H53.4361C58.4683 21.7323 62.5099 22.9251 65.545 25.327C68.58 27.729 70.1054 31.3401 70.1054 36.1931C70.1054 39.1342 69.4135 41.6506 68.0296 43.7421C66.6458 45.8336 64.6643 47.4676 62.0853 48.6114V48.7748C65.545 49.5427 68.1712 51.2421 69.9482 53.8728C71.7252 56.5199 72.6216 59.8205 72.6216 63.8074C72.6216 66.095 72.2284 68.2355 71.4421 70.2127C70.6558 72.2061 69.4292 73.9218 67.7466 75.3597C66.0639 76.7976 63.9252 77.9414 61.299 78.7911C58.6728 79.6408 55.5591 80.0656 51.9421 80.0656H26.1518V21.7323ZM35.9804 46.1604H52.0208C54.3796 46.1604 56.3454 45.4741 57.9179 44.0689C59.4905 42.6636 60.2768 40.6702 60.2768 38.0558C60.2768 35.1146 59.5691 33.0395 58.1538 31.8466C56.7385 30.6538 54.6941 30.0493 52.0208 30.0493H35.9804V46.1604ZM35.9804 71.7323H53.3575C56.3454 71.7323 58.6728 70.9316 60.3083 69.314C61.9595 67.7127 62.7929 65.4251 62.7929 62.4839C62.7929 59.5917 61.9752 57.3859 60.3083 55.8172C58.6413 54.2486 56.3454 53.497 53.3575 53.497H35.9804V71.7323Z" fill="white"/>
</g>
<defs>
<clipPath id="clip0_1_759">
<rect width="96.242" height="100" fill="white"/>
</clipPath>
</defs>
</svg>

<svg xmlns="http://www.w3.org/2000/svg" width="97" height="100" fill="none" xmlns:v="https://vecta.io/nano"><g clip-path="url(#A)"><path d="M96.242 83.333c0 9.167-7.218 16.667-16.04 16.667H16.04C7.218 100 0 92.5 0 83.333V16.667C0 7.5 7.218 0 16.04 0h64.161c8.822 0 16.04 7.5 16.04 16.667v66.667z" fill="#563d7c"/><path d="M26.152 21.732h27.284c5.032 0 9.074 1.193 12.109 3.595s4.56 6.013 4.56 10.866c0 2.941-.692 5.457-2.076 7.549s-3.365 3.725-5.944 4.869v.163c3.46.768 6.086 2.467 7.863 5.098 1.777 2.647 2.673 5.948 2.673 9.935 0 2.288-.393 4.428-1.18 6.405-.786 1.993-2.013 3.709-3.695 5.147s-3.821 2.582-6.448 3.431-5.74 1.275-9.357 1.275h-25.79V21.732zM35.98 46.16h16.04c2.359 0 4.325-.686 5.897-2.092s2.359-3.399 2.359-6.013c0-2.941-.708-5.016-2.123-6.209s-3.46-1.797-6.133-1.797H35.98V46.16zm0 25.572h17.377c2.988 0 5.315-.801 6.951-2.418 1.651-1.601 2.485-3.889 2.485-6.83 0-2.892-.818-5.098-2.485-6.667s-3.963-2.32-6.951-2.32H35.98v18.235z" fill="#fff"/></g><defs><clipPath id="A"><path fill="#fff" d="M0 0h96.242v100H0z"/></clipPath></defs></svg>
